X: 149
T: Cantantibus organis – Maestoso
C: Franciszek Walczyński
%%abc-version 2.0
%%abcx-abcm2ps-target-version 5.9.1 (29 Sep 2008)
%%abc-creator hum2abc beta
%%abcx-conversion-date 2021/10/04 07:38:39
%%abc-edited-by Andrzej Kubiczek
%%abc-edited-by Andrzej Gręziak
%%abcx-initial-encoding-date 2021-08-09
%%humdrum-veritas 381935442
%%humdrum-veritas-data 3206852749
%%linebreak <none>
%%barnumbers 0
L: 1/4
M: 6/4
N: Derived from pl-kozmzk--mzk-m-346--051_walczynski-franciszek--cantantibus-organis-maestoso.krn
Q: "Maestoso."
%%staves {1 2}
V: 1 clef=treble
V: 2 clef=bass
K: Eb
[V:1] [c3G3E3]-[c3G3E3] | 
[V:2] [C,/C,,/][D,/D,,/][E,E,,][G,G,,][E,E,,][D,D,,][C,C,,] | 
[V:1] [c3A3F3]-[c3A3F3] | 
[V:2] [F,/F,,/][G,/G,,/][A,A,,][CC,][A,A,,][G,G,,][F,F,,] | 
[V:1] [c3G3E3]-[c3G3E3] | 
[V:2] [C,/C,,/][D,/D,,/][E,E,,][G,G,,][E,E,,][D,D,,][C,C,,] | 
[V:1] [=B3G3D3]-[B3G3D3] | 
[V:2] [G,/G,,/][^F,/^F,,/][G,G,,][A,A,,]-[A,A,,][G,G,,][=F,=F,,] | 
[V:1] [cG][d=BG][ecG][fcF][ecG][dBG] | 
[V:2] [E,E,,][D,D,,][C,C,,][A,A,,][G,3/G,,3/][F,/F,,/] | 
[V:1] [g3c3G3]-[g2c2G2]z | 
[V:2] [E,3E,,3]-[E,2E,,2]z | 
[V:1] [a2f2]>g2=bc' & c2d[ec][gd][gc-] | 
[V:2] [F,/F,,/][G,/G,,/][A,A,,][=B,=B,,][CC,][G,/G,,/][F,/F,,/][E,E,,] | 
[V:1] ag2c3 & [fc][ec][d=B][G3E3] | 
[V:2] [F,F,,][G,2G,,2][C3C,3] | 
[V:1] [c3G3E3]-[c3G3E3] | 
[V:2] [C,/C,,/][D,/D,,/][E,E,,][G,G,,][E,E,,][D,D,,][C,C,,] | 
[V:1] [c3G3E3]-[c3G3E3] | 
[V:2] [C,/C,,/][D,/D,,/][E,E,,][G,G,,][E,E,,][D,D,,][C,C,,] | 
[V:1] [c3G3E3]-[c3G3E3] | 
[V:2] [C,/C,,/][D,/D,,/][E,E,,][G,G,,][E,E,,][D,D,,][C,C,,] | 
[V:1] c2d[=e3c3] & [A3F3][G3=E3] |]  
[V:2] [F,/F,,/][G,/G,,/][A,A,,][G,/G,,/][F,/F,,/][C,3C,,3] |]  


